X:1256
T:Mary Grace
M:C|
L:1/8
R:Reel
B:O'Neill's 1256
N:Collected by F. O'Neill
Z:Transcribed by Trish O'Neil
K:Am
B \
|cA 3AAA EA 3AAA|BGdc BGG2 \
|1 cA 3AAA EA 3AAA|cded cA A :|2 AGAB cBcd|egdB cBA A||
||Bdef gfgd|BG 3GGG DG 3GGG \
|Bdefg2fg|1 egdB cBAA2 :|2 abaf gfed|]
